X:1
T:Ain, SMD
T:Ain, SMD
T:Arranged from Correlli by Lowell Mason, 1844
T:Public Domain Courtesy of the Cyber Hymnal™)
C:Arranged from Correlli by Lowell Mason, 1844
Z:Public Domain
Z:Courtesy of the Cyber Hymnal™)
%%score ( 1 2 ) ( 3 4 )
L:1/8
Q:1/4=110
M:4/4
K:A
V:1 treble 
V:2 treble 
V:3 bass 
V:4 bass 
V:1
 E2 | [EA]2 [EA]2 [EA]2 (GA) | [GB]6 [EB]2 | [Ec]2 [Ec]2 [Ec]2 (dc) | [EB]6 [EB]2 | %5
 [Ec]2 [Ec]2 ([Fd][Ec]) ([DB][CA]) | [DB]2 [DB]2 ([Ec][DB]) ([CA][B,G]) | %7
 ([CA][Ec]) ([EB][FA]) [EG]2 [^DF]2 | E6 E2 | A3 B (cB) (AG) | (F3 GAG) (FE) | B3 (B A) x3 | %12
 G3 (AGF) (ED) | A3 [CA] [EB]2 [EB]2 | [Ec]2 (cd) [Ee]2 [EG]2 | ([EA][Gd]) ([Ac][FB]) A2 z D x | %16
 [CA]6 |] %17
V:2
 E2 | x6 E2 | x8 | x6 E2 | x8 | x8 | x8 | x8 | E6 x2 | x6 E2 | F3 F2 x3 | D3 c (dc) F2 | %12
 (G3 E2) x3 | (CCE) x5 | x2 E2 x4 | x4 E3 G2 | x6 |] %17
V:3
 [E,,E,]2 | [A,,C,]2 [A,,C,]2 [C,E,]2 ([B,,D,][A,,C,]) | [B,,E,]6 [G,,E,]2 | %3
 [A,,A,]2 [A,,A,]2 [A,,A,]2 ([B,,G,][A,,A,]) | [G,,E,]6 [G,,E,]2 | A,,2 A,,2 [F,,F,]2 [F,,F,]2 | %6
 B,,2 B,,2 [E,,E,]2 [E,,E,]2 | A,,2 ([G,,B,,][A,,C,]) B,,2 [A,,B,,]2 | [G,,E,]6 (E,D,) | %9
 C,3 D, (E,D,) (C,B,,) | (D,3 E,F,E,) (D,C,) | D,3 E, (D,C,) x2 | ([B,,E,]3 F,E,D,) (C,B,,) | %13
 (A,,A,,C,)A,, ([G,,E,][A,,F,]) ([B,,G,][G,,E,]) | [A,,A,]2 A,,2 [A,,C,]2 [B,,D,]2 | %15
 ([A,,C,] E,2) ([C,D,] [C,E,]2) [B,,E,]2 x | A,,6 |] %17
V:4
 x2 | x8 | x8 | x8 | x8 | A,,2 A,,2 x4 | B,,2 B,,2 x4 | A,,2 B,,2 x4 | x8 | x6 A,,2 | %10
 A,,3 A,,2 x3 | B,,3 (F, E,) B,,2 x | x6 E,,2 | E,,3 A,, x4 | x2 (A,,B,,) x4 | x B,,D, x6 | A,,6 |] %17

